packages/axiom-materials/src/icon_svgs/integrations.svg

<svg height="16" viewBox="0 0 16 16" width="16" xmlns="http://www.w3.org/2000/svg"><path d="m11.5005 9.8676c.001-.551.448-.998 1-.998.26 0 .492.106.67.268.221.238.51.362.83.362.69 0 1.25-.671 1.25-1.5 0-.828-.56-1.5-1.25-1.5-.32 0-.609.127-.83.365-.178.162-.41.268-.67.268-.553 0-1-.448-1-1v-3.133l-9.5005.0004v3.133c0 .552.447 1 1 1 .26 0 .492-.084.67-.247.221-.237.51-.386.83-.386.69 0 1.25.672 1.25 1.5 0 .829-.56 1.5-1.25 1.5-.32 0-.609-.148-.83-.385-.178-.163.0905-.2454-.1695-.2454-.552 0-1.4995.4474-1.5005.9984v3.132l9.5005-.0004z" fill-rule="evenodd"/></svg>

<?xml version="1.0" encoding="UTF-8"?>
<svg width="16px" height="16px" viewBox="0 0 16 16" version="1.1" xmlns="http://www.w3.org/2000/svg" xmlns:xlink="http://www.w3.org/1999/xlink">
    <!-- Generator: sketchtool 43.2 (39069) - http://www.bohemiancoding.com/sketch -->
    <title>integrations</title>
    <desc>Created with sketchtool.</desc>
    <defs></defs>
    <g id="Page-1" stroke="none" stroke-width="1" fill="none" fill-rule="evenodd">
        <g id="integrations" fill="#000000">
            <path d="M11.5005,9.8676 C11.5015,9.3166 11.9485,8.8696 12.5005,8.8696 C12.7605,8.8696 12.9925,8.9756 13.1705,9.1376 C13.3915,9.3756 13.6805,9.4996 14.0005,9.4996 C14.6905,9.4996 15.2505,8.8286 15.2505,7.9996 C15.2505,7.1716 14.6905,6.4996 14.0005,6.4996 C13.6805,6.4996 13.3915,6.6266 13.1705,6.8646 C12.9925,7.0266 12.7605,7.1326 12.5005,7.1326 C11.9475,7.1326 11.5005,6.6846 11.5005,6.1326 L11.5005,2.9996 L2,3 L2,6.133 C2,6.685 2.447,7.133 3,7.133 C3.26,7.133 3.492,7.049 3.67,6.886 C3.891,6.649 4.18,6.5 4.5,6.5 C5.19,6.5 5.75,7.172 5.75,8 C5.75,8.829 5.19,9.5 4.5,9.5 C4.18,9.5 3.891,9.352 3.67,9.115 C3.492,8.952 3.7605,8.8696 3.5005,8.8696 C2.9485,8.8696 2.001,9.317 2,9.868 L2,13 L11.5005,12.9996 L11.5005,9.8676 Z" id="Mask"></path>
        </g>
    </g>
</svg>
